src/cards/Simple_h_10.svg

<?xml version="1.0" encoding="UTF-8" standalone="no"?>
<!-- Created with Inkscape (http://www.inkscape.org/) --><svg height="190.00000" id="svg2" inkscape:version="0.41" sodipodi:docbase="/home/nicu/Desktop/simple" sodipodi:docname="h_10.svg" sodipodi:version="0.32" version="1.0" width="140.00000" x="0.0000000" xmlns="http://www.w3.org/2000/svg" xmlns:cc="http://web.resource.org/cc/" xmlns:dc="http://purl.org/dc/elements/1.1/" xmlns:inkscape="http://www.inkscape.org/namespaces/inkscape" xmlns:rdf="http://www.w3.org/1999/02/22-rdf-syntax-ns#" xmlns:sodipodi="http://inkscape.sourceforge.net/DTD/sodipodi-0.dtd" xmlns:svg="http://www.w3.org/2000/svg" xmlns:xlink="http://www.w3.org/1999/xlink" y="0.0000000">
  <metadata>
    <rdf:RDF xmlns:cc="http://web.resource.org/cc/" xmlns:dc="http://purl.org/dc/elements/1.1/" xmlns:rdf="http://www.w3.org/1999/02/22-rdf-syntax-ns#">
      <cc:Work rdf:about="">
        <dc:title>card</dc:title>
        <dc:description></dc:description>
        <dc:subject>
          <rdf:Bag>
            <rdf:li>card</rdf:li>
            <rdf:li>simple</rdf:li>
          </rdf:Bag>
        </dc:subject>
        <dc:publisher>
          <cc:Agent rdf:about="http://www.openclipart.org/">
            <dc:title>Open Clip Art Library</dc:title>
          </cc:Agent>
        </dc:publisher>
        <dc:creator>
          <cc:Agent>
            <dc:title>Nicu Buculei</dc:title>
          </cc:Agent>
        </dc:creator>
        <dc:rights>
          <cc:Agent>
            <dc:title>Nicu Buculei</dc:title>
          </cc:Agent>
        </dc:rights>
        <dc:date></dc:date>
        <dc:format>image/svg+xml</dc:format>
        <dc:type rdf:resource="http://purl.org/dc/dcmitype/StillImage"/>
        <cc:license rdf:resource="http://web.resource.org/cc/PublicDomain"/>
        <dc:language>en</dc:language>
      </cc:Work>
      <cc:License rdf:about="http://web.resource.org/cc/PublicDomain">
        <cc:permits rdf:resource="http://web.resource.org/cc/Reproduction"/>
        <cc:permits rdf:resource="http://web.resource.org/cc/Distribution"/>
        <cc:permits rdf:resource="http://web.resource.org/cc/DerivativeWorks"/>
      </cc:License>
    </rdf:RDF>
  </metadata>
  <sodipodi:namedview bordercolor="#666666" borderopacity="1.0" id="base" inkscape:current-layer="svg2" inkscape:cx="122.70048" inkscape:cy="149.45989" inkscape:pageopacity="0.0" inkscape:pageshadow="2" inkscape:window-height="791" inkscape:window-width="1152" inkscape:window-x="0" inkscape:window-y="26" inkscape:zoom="1.9105263" pagecolor="#ffffff"/>
  <defs id="defs3">
    <linearGradient id="linearGradient2060">
      <stop id="stop2062" offset="0.0000000" style="stop-color:#ebf0d0;stop-opacity:1.0000000;"/>
      <stop id="stop2064" offset="1.0000000" style="stop-color:#ffffeb;stop-opacity:1.0000000;"/>
    </linearGradient>
    <linearGradient gradientTransform="translate(0.000000,-1.000000)" gradientUnits="userSpaceOnUse" id="linearGradient4853" x1="2.0000000" x2="109.00000" xlink:href="#linearGradient2060" y1="63.099518" y2="128.69501"/>
  </defs>
  <g id="g5630">
    <path d="M 21.000000,5.0000000 L 124.00000,5.0000000 C 132.86400,5.0000000 140.00000,12.136000 140.00000,21.000000 L 140.00000,174.00000 C 140.00000,182.86400 132.86400,190.00000 124.00000,190.00000 L 21.000000,190.00000 C 12.136000,190.00000 5.0000000,182.86400 5.0000000,174.00000 L 5.0000000,21.000000 C 5.0000000,12.136000 12.136000,5.0000000 21.000000,5.0000000 z " id="rect2070" style="fill:#000000;fill-opacity:0.49803922;stroke:none;stroke-width:0.20000000;stroke-miterlimit:4.0000000;stroke-dashoffset:0.0000000;stroke-opacity:1.0000000"/>
    <path d="M 17.000000,1.0000000 L 120.00000,1.0000000 C 128.86400,1.0000000 136.00000,8.1360000 136.00000,17.000000 L 136.00000,170.00000 C 136.00000,178.86400 128.86400,186.00000 120.00000,186.00000 L 17.000000,186.00000 C 8.1360000,186.00000 1.0000000,178.86400 1.0000000,170.00000 L 1.0000000,17.000000 C 1.0000000,8.1360000 8.1360000,1.0000000 17.000000,1.0000000 z " id="rect1300" style="fill:#ffffff;fill-opacity:1.0000000;stroke:none;stroke-width:0.20000000;stroke-miterlimit:4.0000000;stroke-dashoffset:0.0000000;stroke-opacity:1.0000000"/>
    <path d="M 19.000000,3.0000000 L 122.00000,3.0000000 C 130.86400,3.0000000 138.00000,10.136000 138.00000,19.000000 L 138.00000,172.00000 C 138.00000,180.86400 130.86400,188.00000 122.00000,188.00000 L 19.000000,188.00000 C 10.136000,188.00000 3.0000000,180.86400 3.0000000,172.00000 L 3.0000000,19.000000 C 3.0000000,10.136000 10.136000,3.0000000 19.000000,3.0000000 z " id="path5624" style="fill:#c7891f;fill-opacity:1.0000000;stroke:none;stroke-width:0.20000000;stroke-miterlimit:4.0000000;stroke-dashoffset:0.0000000;stroke-opacity:1.0000000"/>
    <path d="M 18.000000,1.9999995 L 121.00000,1.9999995 C 129.86400,1.9999995 137.00000,9.1359995 137.00000,18.000000 L 137.00000,171.00000 C 137.00000,179.86400 129.86400,187.00000 121.00000,187.00000 L 18.000000,187.00000 C 9.1360000,187.00000 2.0000000,179.86400 2.0000000,171.00000 L 2.0000000,18.000000 C 2.0000000,9.1359995 9.1360000,1.9999995 18.000000,1.9999995 z " id="rect1306" style="fill:url(#linearGradient4853);fill-opacity:1.0000000;stroke:none;stroke-width:0.20000000;stroke-miterlimit:4.0000000;stroke-dashoffset:0.0000000;stroke-opacity:1.0000000"/>
  </g>
  <path d="M 11.677030,42.368220 L 11.677030,18.778130 L 6.4400000,18.709360 L 6.6925800,15.086640 L 11.647010,11.998110 L 17.139230,11.998110 L 17.139230,42.368220 M 30.572790,27.146430 C 30.572770,23.395650 30.307580,20.756690 29.777370,19.229560 C 29.257180,17.689070 28.376870,16.918820 27.136330,16.918790 C 25.895860,16.918820 25.010530,17.689070 24.480300,19.229560 C 23.950130,20.756690 23.685010,23.395650 23.685020,27.146430 C 23.685010,30.937430 23.950130,33.609860 24.480300,35.163760 C 25.010530,36.717670 25.895860,37.494620 27.136330,37.494620 C 28.366840,37.494620 29.247200,36.717670 29.777370,35.163760 C 30.307580,33.609860 30.572770,30.937430 30.572790,27.146430 M 36.350000,27.206710 C 36.349970,32.176530 35.549700,36.014400 33.949060,38.720320 C 32.348460,41.412860 30.077490,42.759130 27.136330,42.759130 C 24.185190,42.759130 21.909330,41.412860 20.308700,38.720320 C 18.708070,36.014400 17.907820,32.176530 17.907820,27.206710 C 17.907820,22.223510 18.708070,18.385650 20.308700,15.693090 C 21.909330,12.987180 24.185190,11.634210 27.136330,11.634190 C 30.077490,11.634210 32.348460,12.987180 33.949060,15.693090 C 35.549700,18.385650 36.349970,22.223510 36.350000,27.206710" id="text1386" style="font-size:37.418476;font-style:normal;font-variant:normal;font-weight:bold;font-stretch:normal;fill:#ff0000;fill-opacity:1.0000000;stroke:none;stroke-width:1.0000000px;stroke-linecap:butt;stroke-linejoin:miter;stroke-opacity:1.0000000;font-family:Bitstream Vera Sans;text-anchor:start;writing-mode:lr-tb"/>
  <g id="g1390" style="fill:#ff0000;fill-opacity:1.0000000" transform="matrix(0.286388,0.000000,0.000000,0.388772,-29.60833,-9.472414)">
    <path d="M 147.20601,156.41679 C 144.67035,156.42954 141.88421,156.89888 138.79976,157.94804 C 105.17650,177.48492 150.50459,208.98936 169.64351,236.04179 L 170.19602,236.18010 C 191.22900,206.61098 231.26801,174.07246 200.67476,157.94804 C 176.43799,149.70401 169.96344,177.14611 169.73726,178.13554 C 169.53987,177.27202 164.59485,156.32936 147.20601,156.41679 z " id="path1392" style="fill-rule:evenodd;stroke:none;stroke-width:3.4289415;stroke-linecap:butt;stroke-linejoin:round;stroke-miterlimit:4.0000000;stroke-opacity:1.0000000" transform="matrix(1.105375,0.000000,0.000000,1.079637,-12.01415,-18.86731)"/>
  </g>
  <path d="M 127.18847,146.63178 L 127.18847,170.22187 L 132.42550,170.29064 L 132.17292,173.91336 L 127.21849,177.00189 L 121.72627,177.00189 L 121.72627,146.63178 M 108.29271,161.85357 C 108.29273,165.60435 108.55792,168.24331 109.08813,169.77044 C 109.60832,171.31093 110.48863,172.08118 111.72917,172.08121 C 112.96964,172.08118 113.85497,171.31093 114.38520,169.77044 C 114.91537,168.24331 115.18049,165.60435 115.18048,161.85357 C 115.18049,158.06257 114.91537,155.39014 114.38520,153.83624 C 113.85497,152.28233 112.96964,151.50538 111.72917,151.50538 C 110.49866,151.50538 109.61830,152.28233 109.08813,153.83624 C 108.55792,155.39014 108.29273,158.06257 108.29271,161.85357 M 102.51550,161.79329 C 102.51553,156.82347 103.31580,152.98560 104.91644,150.27968 C 106.51704,147.58714 108.78801,146.24087 111.72917,146.24087 C 114.68031,146.24087 116.95617,147.58714 118.55680,150.27968 C 120.15743,152.98560 120.95768,156.82347 120.95768,161.79329 C 120.95768,166.77649 120.15743,170.61435 118.55680,173.30691 C 116.95617,176.01282 114.68031,177.36579 111.72917,177.36581 C 108.78801,177.36579 106.51704,176.01282 104.91644,173.30691 C 103.31580,170.61435 102.51553,166.77649 102.51550,161.79329" id="path12191" style="font-size:37.418476;font-style:normal;font-variant:normal;font-weight:bold;font-stretch:normal;fill:#ff0000;fill-opacity:1.0000000;stroke:none;stroke-width:1.0000000px;stroke-linecap:butt;stroke-linejoin:miter;stroke-opacity:1.0000000;font-family:Bitstream Vera Sans;text-anchor:start;writing-mode:lr-tb"/>
  <path d="M 125.31035,139.99532 C 126.11306,139.98997 126.99505,139.79297 127.97148,139.35260 C 138.61546,131.15233 124.26613,117.92888 118.20740,106.57408 L 118.03250,106.51603 C 111.37417,118.92716 98.699178,132.58465 108.38396,139.35260 C 116.05650,142.81290 118.10613,131.29454 118.17772,130.87924 C 118.24021,131.24169 119.80563,140.03202 125.31035,139.99532 z " id="path12195" style="fill:#ff0000;fill-opacity:1.0000000;fill-rule:evenodd;stroke:none;stroke-width:3.4289415;stroke-linecap:butt;stroke-linejoin:round;stroke-miterlimit:4.0000000;stroke-opacity:1.0000000"/>
  <g id="g1581" style="fill-opacity:1.0000000;fill:#ff0000" transform="matrix(0.166355,0.000000,0.000000,0.229660,40.05390,16.55240)">
    <path d="M 147.20601,156.41679 C 144.67035,156.42954 141.88421,156.89888 138.79976,157.94804 C 105.17650,177.48492 150.50459,208.98936 169.64351,236.04179 L 170.19602,236.18010 C 191.22900,206.61098 231.26801,174.07246 200.67476,157.94804 C 176.43799,149.70401 169.96344,177.14611 169.73726,178.13554 C 169.53987,177.27202 164.59485,156.32936 147.20601,156.41679 z " id="path1583" style="fill-rule:evenodd;stroke:none;stroke-width:3.4289415;stroke-linecap:butt;stroke-linejoin:round;stroke-miterlimit:4.0000000;stroke-opacity:1.0000000" transform="matrix(1.105375,0.000000,0.000000,1.079637,-12.01415,-18.86731)"/>
  </g>
  <g id="g1601" style="fill-opacity:1.0000000;fill:#ff0000" transform="matrix(-0.166355,0.000000,0.000000,-0.229660,97.94610,170.4476)">
    <path d="M 147.20601,156.41679 C 144.67035,156.42954 141.88421,156.89888 138.79976,157.94804 C 105.17650,177.48492 150.50459,208.98936 169.64351,236.04179 L 170.19602,236.18010 C 191.22900,206.61098 231.26801,174.07246 200.67476,157.94804 C 176.43799,149.70401 169.96344,177.14611 169.73726,178.13554 C 169.53987,177.27202 164.59485,156.32936 147.20601,156.41679 z " id="path1603" style="fill-rule:evenodd;stroke:none;stroke-width:3.4289415;stroke-linecap:butt;stroke-linejoin:round;stroke-miterlimit:4.0000000;stroke-opacity:1.0000000" transform="matrix(1.105375,0.000000,0.000000,1.079637,-12.01415,-18.86731)"/>
  </g>
  <g id="g5202" transform="translate(152.0373,99.56709)">
    <g id="g5581" transform="translate(351.5000,184.5000)"/>
  </g>
  <g id="g6248" style="fill-opacity:1.0000000;fill:#ff0000" transform="matrix(0.166355,0.000000,0.000000,0.229660,19.05390,5.772340)">
    <path d="M 147.20601,156.41679 C 144.67035,156.42954 141.88421,156.89888 138.79976,157.94804 C 105.17650,177.48492 150.50459,208.98936 169.64351,236.04179 L 170.19602,236.18010 C 191.22900,206.61098 231.26801,174.07246 200.67476,157.94804 C 176.43799,149.70401 169.96344,177.14611 169.73726,178.13554 C 169.53987,177.27202 164.59485,156.32936 147.20601,156.41679 z " id="path6250" style="fill-rule:evenodd;stroke:none;stroke-width:3.4289415;stroke-linecap:butt;stroke-linejoin:round;stroke-miterlimit:4.0000000;stroke-opacity:1.0000000" transform="matrix(1.105375,0.000000,0.000000,1.079637,-12.01415,-18.86731)"/>
  </g>
  <g id="g5250" style="fill-opacity:1.0000000;fill:#ff0000" transform="matrix(0.166355,0.000000,0.000000,0.229660,58.05389,5.552380)">
    <path d="M 147.20601,156.41679 C 144.67035,156.42954 141.88421,156.89888 138.79976,157.94804 C 105.17650,177.48492 150.50459,208.98936 169.64351,236.04179 L 170.19602,236.18010 C 191.22900,206.61098 231.26801,174.07246 200.67476,157.94804 C 176.43799,149.70401 169.96344,177.14611 169.73726,178.13554 C 169.53987,177.27202 164.59485,156.32936 147.20601,156.41679 z " id="path5252" style="fill-rule:evenodd;stroke:none;stroke-width:3.4289415;stroke-linecap:butt;stroke-linejoin:round;stroke-miterlimit:4.0000000;stroke-opacity:1.0000000" transform="matrix(1.105375,0.000000,0.000000,1.079637,-12.01415,-18.86731)"/>
  </g>
  <g id="g5254" style="fill-opacity:1.0000000;fill:#ff0000" transform="matrix(0.166355,0.000000,0.000000,0.229660,19.69390,36.77234)">
    <path d="M 147.20601,156.41679 C 144.67035,156.42954 141.88421,156.89888 138.79976,157.94804 C 105.17650,177.48492 150.50459,208.98936 169.64351,236.04179 L 170.19602,236.18010 C 191.22900,206.61098 231.26801,174.07246 200.67476,157.94804 C 176.43799,149.70401 169.96344,177.14611 169.73726,178.13554 C 169.53987,177.27202 164.59485,156.32936 147.20601,156.41679 z " id="path5256" style="fill-rule:evenodd;stroke:none;stroke-width:3.4289415;stroke-linecap:butt;stroke-linejoin:round;stroke-miterlimit:4.0000000;stroke-opacity:1.0000000" transform="matrix(1.105375,0.000000,0.000000,1.079637,-12.01415,-18.86731)"/>
  </g>
  <g id="g5258" style="fill-opacity:1.0000000;fill:#ff0000" transform="matrix(0.166355,0.000000,0.000000,0.229660,59.05389,35.77234)">
    <path d="M 147.20601,156.41679 C 144.67035,156.42954 141.88421,156.89888 138.79976,157.94804 C 105.17650,177.48492 150.50459,208.98936 169.64351,236.04179 L 170.19602,236.18010 C 191.22900,206.61098 231.26801,174.07246 200.67476,157.94804 C 176.43799,149.70401 169.96344,177.14611 169.73726,178.13554 C 169.53987,177.27202 164.59485,156.32936 147.20601,156.41679 z " id="path5260" style="fill-rule:evenodd;stroke:none;stroke-width:3.4289415;stroke-linecap:butt;stroke-linejoin:round;stroke-miterlimit:4.0000000;stroke-opacity:1.0000000" transform="matrix(1.105375,0.000000,0.000000,1.079637,-12.01415,-18.86731)"/>
  </g>
  <g id="g5262" style="fill-opacity:1.0000000;fill:#ff0000" transform="matrix(-0.166355,0.000000,0.000000,-0.229660,78.30610,154.2277)">
    <path d="M 147.20601,156.41679 C 144.67035,156.42954 141.88421,156.89888 138.79976,157.94804 C 105.17650,177.48492 150.50459,208.98936 169.64351,236.04179 L 170.19602,236.18010 C 191.22900,206.61098 231.26801,174.07246 200.67476,157.94804 C 176.43799,149.70401 169.96344,177.14611 169.73726,178.13554 C 169.53987,177.27202 164.59485,156.32936 147.20601,156.41679 z " id="path5264" style="fill-rule:evenodd;stroke:none;stroke-width:3.4289415;stroke-linecap:butt;stroke-linejoin:round;stroke-miterlimit:4.0000000;stroke-opacity:1.0000000" transform="matrix(1.105375,0.000000,0.000000,1.079637,-12.01415,-18.86731)"/>
  </g>
  <g id="g5266" style="fill-opacity:1.0000000;fill:#ff0000" transform="matrix(-0.166355,0.000000,0.000000,-0.229660,78.94611,181.2277)">
    <path d="M 147.20601,156.41679 C 144.67035,156.42954 141.88421,156.89888 138.79976,157.94804 C 105.17650,177.48492 150.50459,208.98936 169.64351,236.04179 L 170.19602,236.18010 C 191.22900,206.61098 231.26801,174.07246 200.67476,157.94804 C 176.43799,149.70401 169.96344,177.14611 169.73726,178.13554 C 169.53987,177.27202 164.59485,156.32936 147.20601,156.41679 z " id="path5268" style="fill-rule:evenodd;stroke:none;stroke-width:3.4289415;stroke-linecap:butt;stroke-linejoin:round;stroke-miterlimit:4.0000000;stroke-opacity:1.0000000" transform="matrix(1.105375,0.000000,0.000000,1.079637,-12.01415,-18.86731)"/>
  </g>
  <g id="g5270" style="fill-opacity:1.0000000;fill:#ff0000" transform="matrix(-0.166355,0.000000,0.000000,-0.229660,116.3061,181.2277)">
    <path d="M 147.20601,156.41679 C 144.67035,156.42954 141.88421,156.89888 138.79976,157.94804 C 105.17650,177.48492 150.50459,208.98936 169.64351,236.04179 L 170.19602,236.18010 C 191.22900,206.61098 231.26801,174.07246 200.67476,157.94804 C 176.43799,149.70401 169.96344,177.14611 169.73726,178.13554 C 169.53987,177.27202 164.59485,156.32936 147.20601,156.41679 z " id="path5272" style="fill-rule:evenodd;stroke:none;stroke-width:3.4289415;stroke-linecap:butt;stroke-linejoin:round;stroke-miterlimit:4.0000000;stroke-opacity:1.0000000" transform="matrix(1.105375,0.000000,0.000000,1.079637,-12.01415,-18.86731)"/>
  </g>
  <g id="g5274" style="fill-opacity:1.0000000;fill:#ff0000" transform="matrix(-0.166355,0.000000,0.000000,-0.229660,117.9461,153.4476)">
    <path d="M 147.20601,156.41679 C 144.67035,156.42954 141.88421,156.89888 138.79976,157.94804 C 105.17650,177.48492 150.50459,208.98936 169.64351,236.04179 L 170.19602,236.18010 C 191.22900,206.61098 231.26801,174.07246 200.67476,157.94804 C 176.43799,149.70401 169.96344,177.14611 169.73726,178.13554 C 169.53987,177.27202 164.59485,156.32936 147.20601,156.41679 z " id="path5276" style="fill-rule:evenodd;stroke:none;stroke-width:3.4289415;stroke-linecap:butt;stroke-linejoin:round;stroke-miterlimit:4.0000000;stroke-opacity:1.0000000" transform="matrix(1.105375,0.000000,0.000000,1.079637,-12.01415,-18.86731)"/>
  </g>
</svg>

<?xml version="1.0" encoding="UTF-8" standalone="no"?>
<svg xmlns:rdf="http://www.w3.org/1999/02/22-rdf-syntax-ns#" xmlns="http://www.w3.org/2000/svg" sodipodi:docname="h_10.svg" height="190" sodipodi:version="0.32" width="140" version="1.0" xmlns:xlink="http://www.w3.org/1999/xlink" y="0" x="0" xmlns:cc="http://web.resource.org/cc/" xmlns:dc="http://purl.org/dc/elements/1.1/" sodipodi:docbase="/home/nicu/Desktop/simple" xmlns:sodipodi="http://inkscape.sourceforge.net/DTD/sodipodi-0.dtd">
 <sodipodi:namedview bordercolor="#666666" pagecolor="#ffffff" borderopacity="1.0"/>
 <defs>
  <linearGradient id="a" y2="128.7" gradientUnits="userSpaceOnUse" y1="63.1" gradientTransform="translate(0 -1)" x2="109" x1="2">
   <stop stop-color="#ebf0d0" offset="0"/>
   <stop stop-color="#ffffeb" offset="1"/>
  </linearGradient>
 </defs>
 <path fill-opacity=".49804" d="m21 5h103c8.86 0 16 7.136 16 16v153c0 8.86-7.14 16-16 16h-103c-8.864 0-16-7.14-16-16v-153c0-8.864 7.136-16 16-16z"/>
 <g>
  <path fill="#fff" d="m17 1h103c8.86 0 16 7.136 16 16v153c0 8.86-7.14 16-16 16h-103c-8.864 0-16-7.14-16-16v-153c0-8.864 7.136-16 16-16z"/>
  <path fill="#c7891f" d="m19 3h103c8.86 0 16 7.136 16 16v153c0 8.86-7.14 16-16 16h-103c-8.864 0-16-7.14-16-16v-153c0-8.864 7.136-16 16-16z"/>
  <path fill="url(#a)" d="m18 2h103c8.86 0 16 7.136 16 16v153c0 8.86-7.14 16-16 16h-103c-8.864 0-16-7.14-16-16v-153c0-8.864 7.136-16 16-16z"/>
 </g>
 <g fill="#f00">
  <path d="m11.677 42.368v-23.59l-5.237-.069.2526-3.622 4.9544-3.089h5.492v30.37m13.434-15.222c0-3.75-.265-6.389-.796-7.916-.520-1.541-1.4-2.311-2.641-2.311-1.24 0-2.125.770-2.656 2.311-.530 1.527-.795 4.166-.795 7.916 0 3.791.265 6.464.795 8.018.531 1.554 1.416 2.331 2.656 2.331 1.231 0 2.111-.777 2.641-2.331.531-1.554.796-4.227.796-8.018m5.777.061c0 4.97-0.8 8.807-2.401 11.513-1.601 2.693-3.872 4.039-6.813 4.039-2.951 0-5.227-1.346-6.827-4.039-1.601-2.706-2.401-6.543-2.401-11.513 0-4.983 0.8-8.821 2.401-11.514 1.6-2.706 3.876-4.059 6.827-4.059 2.941 0 5.212 1.353 6.813 4.059 1.601 2.693 2.401 6.531 2.401 11.514"/>
  <g transform="matrix(.28639 0 0 .38877 -29.608 -9.4724)">
   <path fill-rule="evenodd" transform="matrix(1.1054 0 0 1.0796 -12.014 -18.867)" d="m147.21 156.42c-2.54.01-5.33.48-8.41 1.53-33.62 19.53 11.7 51.04 30.84 78.09l.56.14c21.03-29.57 61.07-62.11 30.47-78.23-24.23-8.25-30.71 19.2-30.93 20.19-.20-.87-5.15-21.81-22.53-21.72z"/>
  </g>
  <path d="m127.19 146.63v23.59l5.24.07-.26 3.62-4.95 3.09h-5.49v-30.37m-13.44 15.22c0 3.75.27 6.39.80 7.92.52 1.54 1.4 2.31 2.64 2.31s2.12-.77 2.66-2.31c.53-1.53.79-4.17.79-7.92 0-3.79-.26-6.46-.79-8.01-.54-1.56-1.42-2.33-2.66-2.33-1.23 0-2.11.77-2.64 2.33-.53 1.55-.80 4.22-.80 8.01m-5.77-.06c0-4.97.80-8.8 2.4-11.51 1.6-2.69 3.87-4.04 6.81-4.04 2.95 0 5.23 1.35 6.83 4.04 1.6 2.71 2.4 6.54 2.4 11.51 0 4.99-.80 8.82-2.4 11.52s-3.88 4.06-6.83 4.06c-2.94 0-5.21-1.36-6.81-4.06s-2.4-6.53-2.4-11.52"/>
  <path d="m125.31 140c.80-.01 1.69-.21 2.66-.65 10.65-8.2-3.7-21.42-9.76-32.78l-.18-.05c-6.66 12.41-19.331 26.06-9.65 32.83 7.68 3.46 9.73-8.06 9.8-8.47.06.36 1.63 9.15 7.13 9.12z" fill-rule="evenodd"/>
  <g transform="matrix(.16636 0 0 .22966 40.054 16.552)">
   <path fill-rule="evenodd" transform="matrix(1.1054 0 0 1.0796 -12.014 -18.867)" d="m147.21 156.42c-2.54.01-5.33.48-8.41 1.53-33.62 19.53 11.7 51.04 30.84 78.09l.56.14c21.03-29.57 61.07-62.11 30.47-78.23-24.23-8.25-30.71 19.2-30.93 20.19-.20-.87-5.15-21.81-22.53-21.72z"/>
  </g>
  <g transform="matrix(-.16636 0 0 -.22966 97.946 170.45)">
   <path fill-rule="evenodd" transform="matrix(1.1054 0 0 1.0796 -12.014 -18.867)" d="m147.21 156.42c-2.54.01-5.33.48-8.41 1.53-33.62 19.53 11.7 51.04 30.84 78.09l.56.14c21.03-29.57 61.07-62.11 30.47-78.23-24.23-8.25-30.71 19.2-30.93 20.19-.20-.87-5.15-21.81-22.53-21.72z"/>
  </g>
 </g>
 <g transform="translate(152.04 99.567)"></g>
 <g fill="#f00">
  <g transform="matrix(.16636 0 0 .22966 19.054 5.7723)">
   <path fill-rule="evenodd" transform="matrix(1.1054 0 0 1.0796 -12.014 -18.867)" d="m147.21 156.42c-2.54.01-5.33.48-8.41 1.53-33.62 19.53 11.7 51.04 30.84 78.09l.56.14c21.03-29.57 61.07-62.11 30.47-78.23-24.23-8.25-30.71 19.2-30.93 20.19-.20-.87-5.15-21.81-22.53-21.72z"/>
  </g>
  <g transform="matrix(.16636 0 0 .22966 58.054 5.5524)">
   <path fill-rule="evenodd" transform="matrix(1.1054 0 0 1.0796 -12.014 -18.867)" d="m147.21 156.42c-2.54.01-5.33.48-8.41 1.53-33.62 19.53 11.7 51.04 30.84 78.09l.56.14c21.03-29.57 61.07-62.11 30.47-78.23-24.23-8.25-30.71 19.2-30.93 20.19-.20-.87-5.15-21.81-22.53-21.72z"/>
  </g>
  <g transform="matrix(.16636 0 0 .22966 19.694 36.772)">
   <path fill-rule="evenodd" transform="matrix(1.1054 0 0 1.0796 -12.014 -18.867)" d="m147.21 156.42c-2.54.01-5.33.48-8.41 1.53-33.62 19.53 11.7 51.04 30.84 78.09l.56.14c21.03-29.57 61.07-62.11 30.47-78.23-24.23-8.25-30.71 19.2-30.93 20.19-.20-.87-5.15-21.81-22.53-21.72z"/>
  </g>
  <g transform="matrix(.16636 0 0 .22966 59.054 35.772)">
   <path fill-rule="evenodd" transform="matrix(1.1054 0 0 1.0796 -12.014 -18.867)" d="m147.21 156.42c-2.54.01-5.33.48-8.41 1.53-33.62 19.53 11.7 51.04 30.84 78.09l.56.14c21.03-29.57 61.07-62.11 30.47-78.23-24.23-8.25-30.71 19.2-30.93 20.19-.20-.87-5.15-21.81-22.53-21.72z"/>
  </g>
  <g transform="matrix(-.16636 0 0 -.22966 78.306 154.23)">
   <path fill-rule="evenodd" transform="matrix(1.1054 0 0 1.0796 -12.014 -18.867)" d="m147.21 156.42c-2.54.01-5.33.48-8.41 1.53-33.62 19.53 11.7 51.04 30.84 78.09l.56.14c21.03-29.57 61.07-62.11 30.47-78.23-24.23-8.25-30.71 19.2-30.93 20.19-.20-.87-5.15-21.81-22.53-21.72z"/>
  </g>
  <g transform="matrix(-.16636 0 0 -.22966 78.946 181.23)">
   <path fill-rule="evenodd" transform="matrix(1.1054 0 0 1.0796 -12.014 -18.867)" d="m147.21 156.42c-2.54.01-5.33.48-8.41 1.53-33.62 19.53 11.7 51.04 30.84 78.09l.56.14c21.03-29.57 61.07-62.11 30.47-78.23-24.23-8.25-30.71 19.2-30.93 20.19-.20-.87-5.15-21.81-22.53-21.72z"/>
  </g>
  <g transform="matrix(-.16636 0 0 -.22966 116.31 181.23)">
   <path fill-rule="evenodd" transform="matrix(1.1054 0 0 1.0796 -12.014 -18.867)" d="m147.21 156.42c-2.54.01-5.33.48-8.41 1.53-33.62 19.53 11.7 51.04 30.84 78.09l.56.14c21.03-29.57 61.07-62.11 30.47-78.23-24.23-8.25-30.71 19.2-30.93 20.19-.20-.87-5.15-21.81-22.53-21.72z"/>
  </g>
  <g transform="matrix(-.16636 0 0 -.22966 117.95 153.45)">
   <path fill-rule="evenodd" transform="matrix(1.1054 0 0 1.0796 -12.014 -18.867)" d="m147.21 156.42c-2.54.01-5.33.48-8.41 1.53-33.62 19.53 11.7 51.04 30.84 78.09l.56.14c21.03-29.57 61.07-62.11 30.47-78.23-24.23-8.25-30.71 19.2-30.93 20.19-.20-.87-5.15-21.81-22.53-21.72z"/>
  </g>
 </g>
</svg>
